X: 1173
T: The Lilting Banshee
B: ralph
B: to learn
M:6/8
R: jig
Q: 3/8=100
K:Adorian
V:1 
|:"Am"E2A EAA|"G"BAB ~G3|"Em"~e3 edB|"G"dBA GED|
 "Am"~E3 ABc|"G"BAF ~G3|"Em"~e3 edB|1 "G"dBA "Am"~A3:|2 "G"dBA "Am"AB/c/d||
 |:"Am"e2a age|"G"dBA ~G3|"Em" ~e3 edB|"D"def "G"~g3|
 "Am"eaa age|"G"dBA G2A|"Em"B2e edB|1 "G"dBA "Am"AB/c/d:|2 "G"dBA "A"~A3||
% abcbook-tune_id 63443f22347528618048f97a


% abcbook-boost 0
% abcbook-tablature 
% abcbook-transpose 
% abcbook-lastupdated 1665988827562
% abcbook-soundfonts 
% abcbook-repeats 3


